qtBuildSystem/Mu/images/center.svg

<svg height="48" width="48" xmlns="http://www.w3.org/2000/svg" xmlns:xlink="http://www.w3.org/1999/xlink"><radialGradient id="a" cx="24.837126" cy="36.421127" gradientTransform="matrix(1 0 0 .536723 0 16.87306)" gradientUnits="userSpaceOnUse" r="15.644737"><stop offset="0"/><stop offset="1" stop-opacity="0"/></radialGradient><radialGradient id="b" cx="21.929186" cy="-3.218293" gradientTransform="matrix(3.658819 0 0 2.080782 -62.4164 12.76204)" gradientUnits="userSpaceOnUse" r="13"><stop offset="0" stop-color="#fff"/><stop offset="1" stop-color="#fff" stop-opacity="0"/></radialGradient><radialGradient id="c" cx="22.5" cy="28.116049" gradientTransform="matrix(2.365562 0 0 2.202845 -30.72517 -34.23996)" gradientUnits="userSpaceOnUse" r="14.537862"><stop offset="0" stop-color="#ef2929"/><stop offset="1" stop-color="#c00"/></radialGradient><linearGradient id="d" gradientUnits="userSpaceOnUse" x1="21.702389" x2="21.816015" y1="8.911531" y2="35.546108"><stop offset="0"/><stop offset="1" stop-color="#fff" stop-opacity=".783505"/></linearGradient><g><g fill-rule="evenodd"><path d="m36.5 22a14 13 0 1 1 -28 0 14 13 0 1 1 28 0z" style="opacity:.15;stroke-width:3.136616;stroke-linecap:square;stroke-linejoin:round;stroke:url(#d);fill:url(#c)" transform="matrix(.920697 0 0 .99358 3.679484 1.641236)"/><path d="m40.481863 36.421127a15.644737 8.3968935 0 1 1 -31.2894745 0 15.644737 8.3968935 0 1 1 31.2894745 0z" fill="url(#a)" opacity=".04" transform="matrix(1.150533 0 0 .565685 -4.5765 16.55285)"/><path d="m36.5 22a14 13 0 1 1 -28 0 14 13 0 1 1 28 0z" fill="url(#c)" stroke="#c00" stroke-linecap="square" stroke-linejoin="round" stroke-width="1.075725" transform="matrix(.894862 0 0 .9657 3.855776 2.660348)"/></g><path d="m38 24a14 14 0 1 1 -28 0 14 14 0 1 1 28 0z" fill="none" stroke="#f77d7d" stroke-linecap="square" stroke-linejoin="round" stroke-width="1.217392" transform="matrix(.821429 0 0 .821429 4.285117 4.191455)"/><path d="m23.84315 11.90574c-6.279532.079595-11.404423 4.992059-11.8125 11.1875 6.117823 2.51678 13.87042-1.451223 23.142005-3.381886-.68841-2.748569-4.55472-7.805614-11.173255-7.805614-.051707 0-.104697-.000653-.15625 0z" fill="url(#b)" fill-rule="evenodd" opacity=".6"/></g></svg>

<?xml version="1.0" encoding="UTF-8" standalone="no"?>
<!-- Created with Inkscape (http://www.inkscape.org/) -->
<svg
   xmlns:dc="http://purl.org/dc/elements/1.1/"
   xmlns:cc="http://creativecommons.org/ns#"
   xmlns:rdf="http://www.w3.org/1999/02/22-rdf-syntax-ns#"
   xmlns:svg="http://www.w3.org/2000/svg"
   xmlns="http://www.w3.org/2000/svg"
   xmlns:xlink="http://www.w3.org/1999/xlink"
   xmlns:sodipodi="http://sodipodi.sourceforge.net/DTD/sodipodi-0.dtd"
   xmlns:inkscape="http://www.inkscape.org/namespaces/inkscape"
   width="48px"
   height="48px"
   id="svg1307"
   sodipodi:version="0.32"
   inkscape:version="0.46"
   sodipodi:docbase="/home/jimmac/src/cvs/tango-icon-theme/scalable/actions"
   sodipodi:docname="media-record.svg"
   inkscape:export-filename="/home/lapo/Desktop/Grafica/Icone/media-actions-outlines.png"
   inkscape:export-xdpi="90"
   inkscape:export-ydpi="90"
   inkscape:output_extension="org.inkscape.output.svg.inkscape">
  <defs
     id="defs1309">
    <inkscape:perspective
       sodipodi:type="inkscape:persp3d"
       inkscape:vp_x="0 : 24 : 1"
       inkscape:vp_y="0 : 1000 : 0"
       inkscape:vp_z="48 : 24 : 1"
       inkscape:persp3d-origin="24 : 16 : 1"
       id="perspective47" />
    <linearGradient
       id="linearGradient3837">
      <stop
         style="stop-color:#000000;stop-opacity:1;"
         offset="0"
         id="stop3839" />
      <stop
         style="stop-color:#ffffff;stop-opacity:0.78350514;"
         offset="1"
         id="stop3841" />
    </linearGradient>
    <linearGradient
       id="linearGradient2257">
      <stop
         style="stop-color:#ef2929"
         offset="0"
         id="stop2259" />
      <stop
         style="stop-color:#cc0000"
         offset="1"
         id="stop2261" />
    </linearGradient>
    <linearGradient
       inkscape:collect="always"
       id="linearGradient3340">
      <stop
         style="stop-color:#ffffff;stop-opacity:1;"
         offset="0"
         id="stop3342" />
      <stop
         style="stop-color:#ffffff;stop-opacity:0;"
         offset="1"
         id="stop3344" />
    </linearGradient>
    <linearGradient
       inkscape:collect="always"
       id="linearGradient8662">
      <stop
         style="stop-color:#000000;stop-opacity:1;"
         offset="0"
         id="stop8664" />
      <stop
         style="stop-color:#000000;stop-opacity:0;"
         offset="1"
         id="stop8666" />
    </linearGradient>
    <radialGradient
       inkscape:collect="always"
       xlink:href="#linearGradient8662"
       id="radialGradient2228"
       gradientUnits="userSpaceOnUse"
       gradientTransform="matrix(1,0,0,0.536723,-3.241652e-13,16.87306)"
       cx="24.837126"
       cy="36.421127"
       fx="24.837126"
       fy="36.421127"
       r="15.644737" />
    <radialGradient
       inkscape:collect="always"
       xlink:href="#linearGradient3340"
       id="radialGradient1368"
       gradientUnits="userSpaceOnUse"
       gradientTransform="matrix(3.658819,-3.13388e-16,1.719536e-16,2.080782,-62.4164,12.76204)"
       cx="21.929186"
       cy="-3.2182934"
       fx="21.929186"
       fy="-3.2182934"
       r="13" />
    <radialGradient
       inkscape:collect="always"
       xlink:href="#linearGradient2257"
       id="radialGradient2263"
       cx="22.5"
       cy="28.116049"
       fx="22.5"
       fy="28.116049"
       r="14.537862"
       gradientTransform="matrix(2.365562,-4.942242e-16,5.359766e-16,2.202845,-30.72517,-34.23996)"
       gradientUnits="userSpaceOnUse" />
    <linearGradient
       inkscape:collect="always"
       xlink:href="#linearGradient3837"
       id="linearGradient3843"
       x1="21.702389"
       y1="8.9115314"
       x2="21.816015"
       y2="35.546108"
       gradientUnits="userSpaceOnUse" />
    <radialGradient
       inkscape:collect="always"
       xlink:href="#linearGradient2257"
       id="radialGradient3845"
       gradientUnits="userSpaceOnUse"
       gradientTransform="matrix(2.365562,-4.942242e-16,5.359766e-16,2.202845,-30.72517,-34.23996)"
       cx="22.5"
       cy="28.116049"
       fx="22.5"
       fy="28.116049"
       r="14.537862" />
  </defs>
  <sodipodi:namedview
     id="base"
     pagecolor="#ffffff"
     bordercolor="#666666"
     borderopacity="0.11372549"
     inkscape:pageopacity="0.0"
     inkscape:pageshadow="2"
     inkscape:zoom="1"
     inkscape:cx="-125.50077"
     inkscape:cy="34.59508"
     inkscape:current-layer="layer1"
     showgrid="false"
     inkscape:grid-bbox="true"
     inkscape:document-units="px"
     inkscape:grid-points="true"
     fill="#ef2929"
     showguides="false"
     inkscape:guide-bbox="true"
     guidetolerance="1px"
     stroke="#ef2929"
     inkscape:window-width="872"
     inkscape:window-height="688"
     inkscape:window-x="494"
     inkscape:window-y="160"
     showborder="true"
     inkscape:showpageshadow="false">
    <sodipodi:guide
       orientation="horizontal"
       position="38.996647"
       id="guide2194" />
    <sodipodi:guide
       orientation="horizontal"
       position="9.0140845"
       id="guide2196" />
    <sodipodi:guide
       orientation="vertical"
       position="9.0140845"
       id="guide2198" />
    <sodipodi:guide
       orientation="vertical"
       position="38.975184"
       id="guide2200" />
    <sodipodi:guide
       orientation="horizontal"
       position="22.988281"
       id="guide2202" />
    <sodipodi:guide
       orientation="vertical"
       position="23.908786"
       id="guide2204" />
    <sodipodi:guide
       orientation="vertical"
       position="157.99417"
       id="guide4332" />
    <sodipodi:guide
       orientation="horizontal"
       position="-36.062446"
       id="guide4334" />
    <sodipodi:guide
       orientation="horizontal"
       position="-58.02695"
       id="guide4336" />
    <sodipodi:guide
       orientation="vertical"
       position="180.00287"
       id="guide4338" />
    <sodipodi:guide
       orientation="vertical"
       position="107.92217"
       id="guide4417" />
    <sodipodi:guide
       orientation="vertical"
       position="129.93087"
       id="guide4419" />
    <sodipodi:guide
       orientation="horizontal"
       position="19.996875"
       id="guide5106" />
    <sodipodi:guide
       orientation="horizontal"
       position="63.039674"
       id="guide5119" />
    <sodipodi:guide
       orientation="horizontal"
       position="49.066305"
       id="guide5121" />
    <sodipodi:guide
       orientation="horizontal"
       position="-86.007168"
       id="guide5307" />
    <sodipodi:guide
       orientation="horizontal"
       position="-108.09009"
       id="guide5309" />
    <sodipodi:guide
       orientation="horizontal"
       position="-100.15429"
       id="guide3111" />
    <inkscape:grid
       id="GridFromPre046Settings"
       type="xygrid"
       originx="0px"
       originy="0px"
       spacingx="0.5px"
       spacingy="0.5px"
       color="#0000ff"
       empcolor="#0000ff"
       opacity="0.2"
       empopacity="0.4"
       empspacing="2" />
  </sodipodi:namedview>
  <metadata
     id="metadata1312">
    <rdf:RDF>
      <cc:Work
         rdf:about="">
        <dc:format>image/svg+xml</dc:format>
        <dc:type
           rdf:resource="http://purl.org/dc/dcmitype/StillImage" />
        <dc:title>Media Record</dc:title>
        <dc:creator>
          <cc:Agent>
            <dc:title>Lapo Calamandrei</dc:title>
          </cc:Agent>
        </dc:creator>
        <cc:license
           rdf:resource="http://creativecommons.org/licenses/publicdomain/" />
        <dc:subject>
          <rdf:Bag>
            <rdf:li>media</rdf:li>
            <rdf:li>player</rdf:li>
            <rdf:li>record</rdf:li>
            <rdf:li>music</rdf:li>
            <rdf:li>sound</rdf:li>
            <rdf:li>video</rdf:li>
          </rdf:Bag>
        </dc:subject>
      </cc:Work>
      <cc:License
         rdf:about="http://creativecommons.org/licenses/publicdomain/">
        <cc:permits
           rdf:resource="http://creativecommons.org/ns#Reproduction" />
        <cc:permits
           rdf:resource="http://creativecommons.org/ns#Distribution" />
        <cc:permits
           rdf:resource="http://creativecommons.org/ns#DerivativeWorks" />
      </cc:License>
    </rdf:RDF>
  </metadata>
  <g
     id="layer1"
     inkscape:label="Layer 1"
     inkscape:groupmode="layer"
     style="display:inline">
    <path
       transform="matrix(0.920697,0,0,0.99358,3.679484,1.641236)"
       d="M 36.5 22 A 14 13 0 1 1  8.5,22 A 14 13 0 1 1  36.5 22 z"
       sodipodi:ry="13"
       sodipodi:rx="14"
       sodipodi:cy="22"
       sodipodi:cx="22.5"
       id="path3835"
       style="opacity:0.15;color:#000000;fill:url(#radialGradient3845);fill-opacity:1;fill-rule:evenodd;stroke:url(#linearGradient3843);stroke-width:3.13661647;stroke-linecap:square;stroke-linejoin:round;marker:none;marker-start:none;marker-mid:none;marker-end:none;stroke-miterlimit:4;stroke-dasharray:none;stroke-dashoffset:0;stroke-opacity:1;visibility:visible;display:inline;overflow:visible"
       sodipodi:type="arc"
       inkscape:r_cx="true"
       inkscape:r_cy="true" />
    <path
       inkscape:export-ydpi="90"
       inkscape:export-xdpi="90"
       inkscape:export-filename="/home/lapo/Desktop/Grafica/Icone/media-actions.png"
       sodipodi:type="arc"
       style="opacity:0.03999999;color:#000000;fill:url(#radialGradient2228);fill-opacity:1;fill-rule:evenodd;stroke:none;stroke-width:1;stroke-linecap:butt;stroke-linejoin:miter;marker:none;marker-start:none;marker-mid:none;marker-end:none;stroke-miterlimit:10;stroke-dasharray:none;stroke-dashoffset:0;stroke-opacity:1;visibility:visible;display:inline;overflow:visible"
       id="path2226"
       sodipodi:cx="24.837126"
       sodipodi:cy="36.421127"
       sodipodi:rx="15.644737"
       sodipodi:ry="8.3968935"
       d="M 40.481863 36.421127 A 15.644737 8.3968935 0 1 1  9.1923885,36.421127 A 15.644737 8.3968935 0 1 1  40.481863 36.421127 z"
       transform="matrix(1.150533,0,0,0.565685,-4.5765,16.55285)" />
    <path
       sodipodi:type="arc"
       style="color:#000000;fill:url(#radialGradient2263);fill-opacity:1.0;fill-rule:evenodd;stroke:#cc0000;stroke-width:1.0757246;stroke-linecap:square;stroke-linejoin:round;marker:none;marker-start:none;marker-mid:none;marker-end:none;stroke-miterlimit:4;stroke-dasharray:none;stroke-dashoffset:0;stroke-opacity:1;visibility:visible;display:inline;overflow:visible"
       id="path2525"
       sodipodi:cx="22.5"
       sodipodi:cy="22"
       sodipodi:rx="14"
       sodipodi:ry="13"
       d="M 36.5 22 A 14 13 0 1 1  8.5,22 A 14 13 0 1 1  36.5 22 z"
       transform="matrix(0.894862,0,0,0.9657,3.855776,2.660348)" />
    <path
       sodipodi:type="arc"
       style="color:#000000;fill:none;fill-opacity:1;fill-rule:evenodd;stroke:#f77d7d;stroke-width:1.21739173;stroke-linecap:square;stroke-linejoin:round;marker:none;marker-start:none;marker-mid:none;marker-end:none;stroke-miterlimit:4;stroke-dasharray:none;stroke-dashoffset:0;stroke-opacity:1;visibility:visible;display:inline;overflow:visible"
       id="path2527"
       sodipodi:cx="24"
       sodipodi:cy="24"
       sodipodi:rx="14"
       sodipodi:ry="14"
       d="M 38 24 A 14 14 0 1 1  10,24 A 14 14 0 1 1  38 24 z"
       transform="matrix(0.821429,0,0,0.821429,4.285117,4.191455)" />
    <path
       style="opacity:0.6;fill:url(#radialGradient1368);fill-opacity:1;fill-rule:evenodd;stroke:none;stroke-width:0.25pt;stroke-linecap:butt;stroke-linejoin:miter;stroke-opacity:1;display:inline"
       d="M 23.84315,11.90574 C 17.563618,11.985335 12.438727,16.897799 12.03065,23.09324 C 18.148473,25.61002 25.90107,21.642017 35.172655,19.711354 C 34.484245,16.962785 30.617935,11.90574 23.9994,11.90574 C 23.947693,11.90574 23.894703,11.905087 23.84315,11.90574 z "
       id="path2529"
       sodipodi:nodetypes="cccsc" />
  </g>
</svg>
